img/safety.svg

<svg width="48" height="48" viewBox="0 0 48 48" fill="none" xmlns="http://www.w3.org/2000/svg">
<g clip-path="url(#clip0)">
<path d="M1.033 25.747C-2.602 12.625 3.686 0 14.705 0C20.802 0 23.405 3.504 30.102 11.663C36.8 19.822 46.35 8.478 48 25.747C46.614 41.66 29.348 56.064 21.332 42.774C14.034 30.674 4.667 38.868 1.032 25.747H1.033Z" fill="#FFDD76"/>
<path d="M12.72 33H35.28C35.688 33 36 32.68 36 32.261V29.085C35.9982 28.9256 35.9461 28.7709 35.8514 28.6427C35.7566 28.5146 35.6239 28.4195 35.472 28.371L34.8 28.174C34.68 28.149 34.608 28.026 34.608 27.903V24.647C34.608 20.559 32.328 16.792 28.776 14.97V14.748C28.776 13.788 28.008 13 27.072 13H20.928C19.992 13 19.224 13.788 19.224 14.748V14.97C15.672 16.817 13.392 20.56 13.392 24.647V27.903C13.3922 27.9624 13.3737 28.0204 13.3393 28.0688C13.3049 28.1172 13.2562 28.1536 13.2 28.173L12.528 28.371C12.3743 28.4163 12.2395 28.5105 12.1442 28.6394C12.0489 28.7683 11.9983 28.9247 12 29.085V32.261C12 32.68 12.336 33 12.72 33ZM13.44 29.651L13.584 29.601C13.9415 29.4888 14.2546 29.2667 14.4786 28.9663C14.7027 28.666 14.8263 28.3027 14.832 27.928V24.672C14.832 21.397 16.536 18.368 19.224 16.694V20.067C19.224 20.486 19.536 20.806 19.944 20.806C20.352 20.806 20.664 20.486 20.664 20.067V14.772C20.664 14.625 20.784 14.502 20.928 14.502H27.072C27.1426 14.5036 27.2098 14.5327 27.2591 14.5832C27.3084 14.6336 27.3361 14.7014 27.336 14.772V15.462C27.336 15.512 27.336 15.659 27.36 15.807V20.067C27.36 20.486 27.672 20.806 28.08 20.806C28.488 20.806 28.8 20.486 28.8 20.067V18.614C31.2 19.968 31.728 21.397 31.728 24.647V27.903C31.728 28.125 31.776 28.322 31.848 28.519H19.944C19.536 28.519 19.224 28.839 19.224 29.257C19.224 29.675 19.536 29.996 19.944 29.996H33.12V31.523H13.44V29.651Z" fill="#63522B"/>
</g>
<defs>
<clipPath id="clip0">
<rect width="48" height="48" fill="white"/>
</clipPath>
</defs>
</svg>

<svg width="48" height="48" fill="none" xmlns="http://www.w3.org/2000/svg"><g clip-path="url(#clip0)"><path d="M1.033 25.747C-2.602 12.625 3.686 0 14.705 0c6.097 0 8.7 3.504 15.397 11.663C36.8 19.822 46.35 8.478 48 25.747 46.614 41.66 29.348 56.064 21.332 42.774c-7.298-12.1-16.665-3.906-20.3-17.027h.001z" fill="#FFDD76"/><path d="M12.72 33h22.56c.408 0 .72-.32.72-.739v-3.176a.759.759 0 0 0-.528-.714l-.672-.197c-.12-.025-.192-.148-.192-.271v-3.256c0-4.088-2.28-7.855-5.832-9.677v-.222c0-.96-.768-1.748-1.704-1.748h-6.144c-.936 0-1.704.788-1.704 1.748v.222c-3.552 1.847-5.832 5.59-5.832 9.677v3.256a.285.285 0 0 1-.192.27l-.672.198a.736.736 0 0 0-.528.714v3.176c0 .419.336.739.72.739zm.72-3.349l.144-.05a1.781 1.781 0 0 0 1.248-1.673v-3.256c0-3.275 1.704-6.304 4.392-7.978v3.373c0 .419.312.739.72.739s.72-.32.72-.739v-5.295c0-.147.12-.27.264-.27h6.144a.27.27 0 0 1 .264.27v.69c0 .05 0 .197.024.345v4.26c0 .419.312.739.72.739s.72-.32.72-.739v-1.453c2.4 1.354 2.928 2.783 2.928 6.033v3.256c0 .222.048.419.12.616H19.944c-.408 0-.72.32-.72.738s.312.739.72.739H33.12v1.527H13.44v-1.872z" fill="#63522B"/></g><defs><clipPath id="clip0"><path fill="#fff" d="M0 0h48v48H0z"/></clipPath></defs></svg>
